tools/download-figma-icons/icons/action/info-checkmark.svg

<svg width="24" height="24" viewBox="0 0 24 24" fill="none" xmlns="http://www.w3.org/2000/svg">
<path fill-rule="evenodd" clip-rule="evenodd" d="M24 12C24 5.37258 18.6274 0 12 0C5.37258 0 0 5.37258 0 12C0 18.6274 5.37258 24 12 24C15.1826 24 18.2348 22.7357 20.4853 20.4853C22.7357 18.2348 24 15.1826 24 12ZM17.166 7.5L18.6244 8.95841L10.1391 17.4437L10.1067 17.4113L10.023 17.495L5.25 12.7221L6.70841 11.2637L10.0554 14.6106L17.166 7.5Z" fill="black"/>
</svg>

<svg width="24" height="24" viewBox="0 0 24 24" fill="none" xmlns="http://www.w3.org/2000/svg"><path fill-rule="evenodd" clip-rule="evenodd" d="M24 12c0-6.627-5.373-12-12-12S0 5.373 0 12s5.373 12 12 12a12 12 0 0 0 12-12Zm-6.834-4.5 1.458 1.458-8.485 8.486-.032-.033-.084.084-4.773-4.773 1.458-1.458 3.347 3.347L17.166 7.5Z" fill="currentColor"/></svg>
